!!!OTL-incipit: ICH WEISS EIN' HUEBSCHE MUELLERIN
!!!ARE: Europa, Mitteleuropa, Deutschland
!!!SCT: Z0158
!!!TXL: @@DE
!!!YEM: Copyright 1995, estate of Helmut Schaffrath.
**kern	**text
*ICvox	*
*M4/4	*
*met(c)	*
*k[]	*
*C:	*
!LO:TX:a:t=Lied aus dem 16. Jahrhundert. Altdeutſch.	!
{4b	Jch
=1	=1
4cc	weiß
4ee	ein'
4dd	hüb-
4cc	-ſche
=2	=2
4b	Mül-
4b	-le-
4a}	-rin,
{4b/	die
=3	=3
4cc	deucht
4g	ſich
4a	hübſch
4b/	und
=4	=4
2cc	klug.
4r}	.
{4b	Von
=5	=5
4cc	O-
4ee	-ber-
4dd	-land
4cc	bis
=6	=6
4b	an
4b	den
4a}	Rhein,
{4b/	wo
=7	=7
4cc	ſind
4g	man
4a	ih-
4b/	-ren
=8	=8
4cc	Fug.
4dd	.
4ee}	.
{4cc	Jn
=9	=9
4dd	ei-
4cc	-nem
4b	Dorf
4a	ſie
=10	=10
2g	ſaß.
4r}	.
{4b	Ʒu
=11	=11
4cc	Markt
4b	da
4cc	thät
4a	ſie
=12	=12
2g	lau-
4e}	-fen,
{4cc	thät
=13	=13
4cc	ihr'
4cc	Hüh-
4dd	-ner
4dd	ver-
=14	=14
2dd	-kau-
4dd}	-fen,
{4ff	als
=15	=15
4ee	ihr
4cc	Ge-
4dd	-wohn-
4b	-heit
=16	=16
2.cc}	war.
==	==
!!!AGN: Erzaehlung, lustige Romanze
!!!ONB: ESAC (Essen Associative Code) Database: ZUCCAL
!!!AMT: simple quadruple
!!!AIN: vox
!!!EED: Helmut Schaffrath
!!!EEV: 1.0
!!!GTL: II. Erzahlungen, lustige Romanzen, Kinder-Lieder und episch-lyrische Volks-Lieder.
!!!URL-scan: https://www.digitale-sammlungen.de/de/view/bsb11160571?page=300
!!!ENC: Anna Maria Matuszewska
!!!EEV: 2025/01/28
*-	*-
